icons/square/48/the-escapist.svg

<svg version="1.1" viewBox="0 0 48 48" xmlns="http://www.w3.org/2000/svg">
 <defs>
  <linearGradient id="bg" x2="0" y1="1" y2="47" gradientUnits="userSpaceOnUse">
   <stop stop-color="#a0a0a8" offset="0"/>
   <stop stop-color="#96969e" offset="1"/>
  </linearGradient>
 </defs>
 <path d="m1 43v0.25c0 2.216 1.784 4 4 4h38c2.216 0 4-1.784 4-4v-0.25c0 2.216-1.784 4-4 4h-38c-2.216 0-4-1.784-4-4zm0 0.5v0.5c0 2.216 1.784 4 4 4h38c2.216 0 4-1.784 4-4v-0.5c0 2.216-1.784 4-4 4h-38c-2.216 0-4-1.784-4-4z" opacity=".02"/>
 <path d="m1 43.25v0.25c0 2.216 1.784 4 4 4h38c2.216 0 4-1.784 4-4v-0.25c0 2.216-1.784 4-4 4h-38c-2.216 0-4-1.784-4-4z" opacity=".05"/>
 <path d="m1 43v0.25c0 2.216 1.784 4 4 4h38c2.216 0 4-1.784 4-4v-0.25c0 2.216-1.784 4-4 4h-38c-2.216 0-4-1.784-4-4z" opacity=".1"/>
 <path d="m5 1h38a4 4 0 0 1 1 0.12702l1 1.873v42l-1 1.873a4 4 0 0 1-1 0.12702h-38a4 4 0 0 1-1-0.12702l-1-1.873v-42l1-1.873a4 4 0 0 1 1-0.12702z" fill="url(#bg)"/>
 <path d="m8 1v7h-4v-6.8613c-1.7263 0.44369-3 1.9928-3 3.8613v38c0 1.8686 1.2737 3.4176 3 3.8613v-4.8613h4v5h2v-5h4v5h2v-5h4v5h2v-5h4v5h2v-5h4v5h2v-5h4v5h2v-5h4v4.8613c1.7263-0.44369 3-1.9928 3-3.8613v-38c0-1.8686-1.2737-3.4176-3-3.8613v6.8613h-4v-7h-2v7h-4v-7h-2v7h-4v-7h-2v7h-4v-7h-2v7h-4v-7h-2v7h-4v-7h-2zm-4 9h4c0 6-1 9-1 15s1 9 1 15h-4v-30zm6 0h4c0 8-3 9-3 15s3 7 3 15h-4c0-6-1-9-1-15s1-9 1-15zm6 0h4c0 2.5-1.5 4.5-2.5 5.5l0.5 0.5 2-1c1-1 2-3 2-5h4c0 2 1 4 2 5l2 1 0.5-0.5c-1-1-2.5-3-2.5-5.5h4c0 8 3 9 3 15s-3 7-3 15h-4c0-2.5 1.5-4.5 2.5-5.5l-0.5-0.5-2 1c-1 1-2 3-2 5h-4c0-2-1-4-2-5l-2-1-0.5 0.5c1 1 2.5 3 2.5 5.5h-4c0-8-3-9-3-15s3-7 3-15zm18 0h4c0 6 1 9 1 15s-1 9-1 15h-4c0-8 3-9 3-15s-3-7-3-15zm6 0h4v30h-4c0-6 1-9 1-15s-1-9-1-15z" opacity=".1"/>
 <path d="m8 1v6h-4v-5.8613c-1.7263 0.44369-3 1.9928-3 3.8613v38c0 1.8686 1.2737 3.4176 3 3.8613v-5.8613h4v6h2v-6h4v6h2v-6h4v6h2v-6h4v6h2v-6h4v6h2v-6h4v6h2v-6h4v5.8613c1.7263-0.44369 3-1.9928 3-3.8613v-38c0-1.8686-1.2737-3.4176-3-3.8613v5.8613h-4v-6h-2v6h-4v-6h-2v6h-4v-6h-2v6h-4v-6h-2v6h-4v-6h-2v6h-4v-6h-2zm-4 8h4c0 6-1 9-1 15s1 9 1 15h-4v-30zm6 0h4c0 8-3 9-3 15s3 7 3 15h-4c0-6-1-9-1-15s1-9 1-15zm6 0h4c0 2.5-1.5 4.5-2.5 5.5l0.5 0.5 2-1c1-1 2-3 2-5h4c0 2 1 4 2 5l2 1 0.5-0.5c-1-1-2.5-3-2.5-5.5h4c0 8 3 9 3 15s-3 7-3 15h-4c0-2.5 1.5-4.5 2.5-5.5l-0.5-0.5-2 1c-1 1-2 3-2 5h-4c0-2-1-4-2-5l-2-1-0.5 0.5c1 1 2.5 3 2.5 5.5h-4c0-8-3-9-3-15s3-7 3-15zm18 0h4c0 6 1 9 1 15s-1 9-1 15h-4c0-8 3-9 3-15s-3-7-3-15zm6 0h4v30h-4c0-6 1-9 1-15s-1-9-1-15z" fill="#222"/>
 <path d="m1 39v4c0 2.216 1.784 4 4 4h38c2.216 0 4-1.784 4-4v-4c0 2.216-1.784 4-4 4h-38c-2.216 0-4-1.784-4-4z" opacity=".1"/>
</svg>

<?xml version="1.0" encoding="UTF-8" standalone="no"?>
<svg xmlns="http://www.w3.org/2000/svg" version="1.1" viewBox="0 0 48 48">
	<defs>
		<linearGradient id="bg" gradientUnits="userSpaceOnUse" x1="0" x2="0" y1="1" y2="47">
			<stop offset="0" stop-color="#a0a0a8"/>
			<stop offset="1" stop-color="#96969e"/>
		</linearGradient>
	</defs>
	<g>
		<path opacity=".02" d="m1 43v0.25c0 2.216 1.784 4 4 4h38c2.216 0 4-1.784 4-4v-0.25c0 2.216-1.784 4-4 4h-38c-2.216 0-4-1.784-4-4zm0 0.5v0.5c0 2.216 1.784 4 4 4h38c2.216 0 4-1.784 4-4v-0.5c0 2.216-1.784 4-4 4h-38c-2.216 0-4-1.784-4-4z"/>
		<path opacity=".05" d="m1 43.25v0.25c0 2.216 1.784 4 4 4h38c2.216 0 4-1.784 4-4v-0.25c0 2.216-1.784 4-4 4h-38c-2.216 0-4-1.784-4-4z"/>
		<path opacity=".1" d="m1 43v0.25c0 2.216 1.784 4 4 4h38c2.216 0 4-1.784 4-4v-0.25c0 2.216-1.784 4-4 4h-38c-2.216 0-4-1.784-4-4z"/>
		<path fill="url(#bg)" d="M5,1 43,1 A4,4,0,0,1,44,1.127016653792583 L45,3 45,45 44,46.87298334620742 A4,4,0,0,1,43,47 L5,47 A4,4,0,0,1,4,46.87298334620742 L3,45 3,3 4,1.127016653792583 A4,4,0,0,1,5,1 z"/>
	</g>
	<path d="M 8 1 L 8 8 L 4 8 L 4 1.1386719 C 2.2737034 1.5823641 1 3.13145 1 5 L 1 43 C 1 44.86855 2.2737034 46.417636 4 46.861328 L 4 42 L 8 42 L 8 47 L 10 47 L 10 42 L 14 42 L 14 47 L 16 47 L 16 42 L 20 42 L 20 47 L 22 47 L 22 42 L 26 42 L 26 47 L 28 47 L 28 42 L 32 42 L 32 47 L 34 47 L 34 42 L 38 42 L 38 47 L 40 47 L 40 42 L 44 42 L 44 46.861328 C 45.726297 46.417636 47 44.86855 47 43 L 47 5 C 47 3.13145 45.726297 1.5823641 44 1.1386719 L 44 8 L 40 8 L 40 1 L 38 1 L 38 8 L 34 8 L 34 1 L 32 1 L 32 8 L 28 8 L 28 1 L 26 1 L 26 8 L 22 8 L 22 1 L 20 1 L 20 8 L 16 8 L 16 1 L 14 1 L 14 8 L 10 8 L 10 1 L 8 1 z M 4 10 L 8 10 C 8 16 7 19 7 25 C 7 31 8 34 8 40 L 4 40 L 4 10 z M 10 10 L 14 10 C 14 18 11 19 11 25 C 11 31 14 32 14 40 L 10 40 C 10 34 9 31 9 25 C 9 19 10 16 10 10 z M 16 10 L 20 10 C 20 12.5 18.5 14.5 17.5 15.5 L 18 16 L 20 15 C 21 14 22 12 22 10 L 26 10 C 26 12 27 14 28 15 L 30 16 L 30.5 15.5 C 29.5 14.5 28 12.5 28 10 L 32 10 C 32 18 35 19 35 25 C 35 31 32 32 32 40 L 28 40 C 28 37.5 29.5 35.5 30.5 34.5 L 30 34 L 28 35 C 27 36 26 38 26 40 L 22 40 C 22 38 21 36 20 35 L 18 34 L 17.5 34.5 C 18.5 35.5 20 37.5 20 40 L 16 40 C 16 32 13 31 13 25 C 13 19 16 18 16 10 z M 34 10 L 38 10 C 38 16 39 19 39 25 C 39 31 38 34 38 40 L 34 40 C 34 32 37 31 37 25 C 37 19 34 18 34 10 z M 40 10 L 44 10 L 44 40 L 40 40 C 40 34 41 31 41 25 C 41 19 40 16 40 10 z" opacity=".1"/>
	<path d="M 8 1 L 8 7 L 4 7 L 4 1.1386719 C 2.2737034 1.5823641 1 3.13145 1 5 L 1 43 C 1 44.86855 2.2737034 46.417636 4 46.861328 L 4 41 L 8 41 L 8 47 L 10 47 L 10 41 L 14 41 L 14 47 L 16 47 L 16 41 L 20 41 L 20 47 L 22 47 L 22 41 L 26 41 L 26 47 L 28 47 L 28 41 L 32 41 L 32 47 L 34 47 L 34 41 L 38 41 L 38 47 L 40 47 L 40 41 L 44 41 L 44 46.861328 C 45.726297 46.417636 47 44.86855 47 43 L 47 5 C 47 3.13145 45.726297 1.5823641 44 1.1386719 L 44 7 L 40 7 L 40 1 L 38 1 L 38 7 L 34 7 L 34 1 L 32 1 L 32 7 L 28 7 L 28 1 L 26 1 L 26 7 L 22 7 L 22 1 L 20 1 L 20 7 L 16 7 L 16 1 L 14 1 L 14 7 L 10 7 L 10 1 L 8 1 z M 4 9 L 8 9 C 8 15 7 18 7 24 C 7 30 8 33 8 39 L 4 39 L 4 9 z M 10 9 L 14 9 C 14 17 11 18 11 24 C 11 30 14 31 14 39 L 10 39 C 10 33 9 30 9 24 C 9 18 10 15 10 9 z M 16 9 L 20 9 C 20 11.5 18.5 13.5 17.5 14.5 L 18 15 L 20 14 C 21 13 22 11 22 9 L 26 9 C 26 11 27 13 28 14 L 30 15 L 30.5 14.5 C 29.5 13.5 28 11.5 28 9 L 32 9 C 32 17 35 18 35 24 C 35 30 32 31 32 39 L 28 39 C 28 36.5 29.5 34.5 30.5 33.5 L 30 33 L 28 34 C 27 35 26 37 26 39 L 22 39 C 22 37 21 35 20 34 L 18 33 L 17.5 33.5 C 18.5 34.5 20 36.5 20 39 L 16 39 C 16 31 13 30 13 24 C 13 18 16 17 16 9 z M 34 9 L 38 9 C 38 15 39 18 39 24 C 39 30 38 33 38 39 L 34 39 C 34 31 37 30 37 24 C 37 18 34 17 34 9 z M 40 9 L 44 9 L 44 39 L 40 39 C 40 33 41 30 41 24 C 41 18 40 15 40 9 z" fill="#222"/>
	<path opacity=".1" d="m1 39v4c0 2.216 1.784 4 4 4h38c2.216 0 4-1.784 4-4v-4c0 2.216-1.784 4-4 4h-38c-2.216 0-4-1.784-4-4z"/>
</svg>
